src/assets/img/xp/wf_logo.svg

<?xml version="1.0" encoding="UTF-8" standalone="no" ?>
<!DOCTYPE svg PUBLIC "-//W3C//DTD SVG 1.1//EN" "http://www.w3.org/Graphics/SVG/1.1/DTD/svg11.dtd">
<svg xmlns="http://www.w3.org/2000/svg" xmlns:xlink="http://www.w3.org/1999/xlink" version="1.1" width="1200" height="1200" viewBox="0 0 1200 1200" xml:space="preserve">
<desc>Created with Fabric.js 4.2.0</desc>
<defs>
</defs>
<rect x="0" y="0" width="100%" height="100%" fill="transparent"></rect>
<g transform="matrix(Infinity NaN NaN Infinity 0 0)" id="d51c94a1-7b1d-4a29-a51e-be1a61cd055b"  >
</g>
<g transform="matrix(1 0 0 1 600 600)" id="172bef3f-351d-4c7d-8d63-5d441808a1db"  >
<rect style="stroke: none; stroke-width: 1; stroke-dasharray: none; stroke-linecap: butt; stroke-dashoffset: 0; stroke-linejoin: miter; stroke-miterlimit: 4; fill: rgb(255,255,255); fill-rule: nonzero; opacity: 1; visibility: hidden;" vector-effect="non-scaling-stroke"  x="-600" y="-600" rx="0" ry="0" width="1200" height="1200" />
</g>
<g transform="matrix(0.27 0 0 0.27 334.06 333.4)"  >
<g style="" vector-effect="non-scaling-stroke"   >
		<g transform="matrix(35.34 0 0 35.34 0.17 0.17)"  >
<path style="stroke: none; stroke-width: 1; stroke-dasharray: none; stroke-linecap: butt; stroke-dashoffset: 0; stroke-linejoin: miter; stroke-miterlimit: 4; fill: rgb(205,19,9); fill-rule: nonzero; opacity: 1;" vector-effect="non-scaling-stroke"  transform=" translate(-35.38, -35.38)" d="M 0 0 L 70.751 0 L 70.751 70.751 L 0 70.751 L 0 0 z" stroke-linecap="round" />
</g>
		<g transform="matrix(35.34 0 0 35.34 -39.15 -3.52)"  >
<path style="stroke: none; stroke-width: 1; stroke-dasharray: none; stroke-linecap: butt; stroke-dashoffset: 0; stroke-linejoin: miter; stroke-miterlimit: 4; fill: rgb(255,255,0); fill-rule: nonzero; opacity: 1;" vector-effect="non-scaling-stroke"  transform=" translate(-34.26, -35.27)" d="M 16.172 41.744 C 16.172 40.935 16.071 40.228 15.768 39.621 C 15.364 39.115 14.656 39.016000000000005 13.544 39.016000000000005 L 11.017 39.016000000000005 L 11.017 42.047000000000004 L 11.825999999999999 42.047000000000004 C 13.038999999999998 42.047000000000004 13.241 41.74400000000001 13.241 40.229000000000006 L 14.251999999999999 40.229000000000006 L 14.251999999999999 45.28300000000001 L 13.241 45.28300000000001 C 13.241 43.56300000000001 13.039 43.16000000000001 11.826 43.16000000000001 L 11.017000000000001 43.16000000000001 L 11.017000000000001 45.78900000000001 C 11.017000000000001 46.699000000000005 11.118000000000002 46.699000000000005 12.028 46.699000000000005 L 13.14 46.699000000000005 L 13.14 47.910000000000004 L 6.974 47.910000000000004 L 6.974 46.699000000000005 L 7.58 46.699000000000005 C 8.389 46.699000000000005 8.692 46.596000000000004 8.692 45.78900000000001 L 8.692 39.82400000000001 C 8.692 39.01600000000001 8.388 38.91600000000001 7.58 38.91600000000001 L 6.974 38.91600000000001 L 6.974 37.805000000000014 L 17.284 37.805000000000014 L 17.284 41.746000000000016 L 16.171999999999997 41.744000000000014 z M 39.419 45.08 L 38.51 45.08 C 38.51 46.190999999999995 38.51 46.696999999999996 37.903 46.696999999999996 C 37.6 46.696999999999996 37.298 46.391999999999996 37.298 45.787 L 37.298 45.281 C 37.196000000000005 43.867 36.894 43.26 35.175000000000004 42.754 C 37.095000000000006 42.553 38.20700000000001 41.643 38.20700000000001 40.229 C 38.20700000000001 38.51 36.99400000000001 37.803 34.467000000000006 37.803 L 27.493000000000006 37.803 L 27.493000000000006 38.913999999999994 L 28.303000000000004 38.913999999999994 C 29.213000000000005 38.913999999999994 29.314000000000004 39.01599999999999 29.314000000000004 39.821999999999996 L 29.314000000000004 45.78699999999999 C 29.314000000000004 46.49399999999999 28.910000000000004 46.69699999999999 28.303000000000004 46.69699999999999 L 27.595000000000006 46.69699999999999 C 26.989000000000004 46.69699999999999 26.685000000000006 46.493999999999986 26.382000000000005 45.78699999999999 L 23.148000000000003 37.80299999999999 L 20.72 37.80299999999999 L 17.282 45.78699999999999 C 16.979 46.49399999999999 16.777 46.69699999999999 15.969 46.69699999999999 L 15.565 46.69699999999999 L 15.565 47.90799999999999 L 20.820999999999998 47.90799999999999 L 20.820999999999998 46.69699999999999 L 19.708999999999996 46.69699999999999 C 19.203999999999997 46.69699999999999 18.899999999999995 46.69699999999999 18.899999999999995 46.39199999999999 C 18.899999999999995 46.28899999999999 19.000999999999994 46.08799999999999 19.101999999999997 45.88499999999999 L 19.606999999999996 44.67199999999999 L 23.447999999999997 44.67199999999999 L 23.952999999999996 45.78499999999999 C 24.053999999999995 45.98599999999999 24.053999999999995 46.18799999999999 24.053999999999995 46.28899999999999 C 24.053999999999995 46.694999999999986 23.750999999999994 46.694999999999986 23.244999999999994 46.694999999999986 L 22.132999999999996 46.694999999999986 L 22.132999999999996 47.905999999999985 L 33.553999999999995 47.905999999999985 L 33.553999999999995 46.694999999999986 L 32.644 46.694999999999986 C 31.733999999999998 46.694999999999986 31.633 46.694999999999986 31.633 45.78499999999999 L 31.633 43.15599999999999 L 32.644 43.15599999999999 C 34.361999999999995 43.15599999999999 34.867999999999995 43.46099999999999 34.969 45.17699999999999 L 34.969 46.28799999999999 C 35.07 47.703999999999986 35.980000000000004 48.10799999999999 37.394 48.10799999999999 C 38.607 48.10799999999999 39.415 47.40099999999999 39.415 45.47899999999999 C 39.419 45.38199999999999 39.419 45.178999999999995 39.419 45.07999999999999 z M 20.012999999999998 43.461999999999996 L 21.63 39.62 L 23.146 43.461999999999996 L 20.013 43.461999999999996 z M 33.759 41.94499999999999 L 31.636 42.04699999999999 L 31.636 38.91399999999999 L 33.759 38.91399999999999 C 35.174 38.91399999999999 35.882 39.31799999999999 35.882 40.429999999999986 L 35.882 40.53299999999999 C 35.881 41.54099999999999 35.174 41.944999999999986 33.759 41.944999999999986 z M 48.415 41.035 C 47.909 39.519 46.897999999999996 38.812 45.281 38.812 C 43.665 38.812 42.349 40.125 42.349 42.751999999999995 C 42.349 45.38099999999999 43.361 46.69499999999999 45.281 46.794999999999995 C 46.595 46.794999999999995 47.808 46.087999999999994 47.808 44.977999999999994 L 47.808 44.370999999999995 C 47.808 43.663999999999994 47.706 43.663999999999994 46.697 43.663999999999994 L 46.191 43.663999999999994 L 46.191 42.553 L 50.941 42.553 L 50.941 43.663999999999994 L 50.538000000000004 43.663999999999994 C 49.831 43.663999999999994 49.728 43.663999999999994 49.728 44.47299999999999 L 49.728 47.80899999999999 L 48.818000000000005 47.80899999999999 L 48.312 47 C 47.402 47.707 46.087999999999994 48.111 44.875 48.111 C 43.46 48.111 42.349000000000004 47.605 41.438 46.593999999999994 C 40.428000000000004 45.581999999999994 39.821000000000005 44.26899999999999 39.821000000000005 42.751999999999995 C 39.821000000000005 41.135 40.327000000000005 39.922 41.33800000000001 38.91199999999999 C 42.248000000000005 38.001999999999995 43.56200000000001 37.59899999999999 44.97800000000001 37.59899999999999 C 46.08800000000001 37.59899999999999 47.40400000000001 37.90199999999999 48.11100000000001 38.70899999999999 L 48.61500000000001 37.59899999999999 L 49.42600000000001 37.59899999999999 L 49.42600000000001 41.03499999999999 L 48.415000000000006 41.03499999999999 z M 57.611 48.009 C 54.276999999999994 48.009 51.647999999999996 45.988 51.647999999999996 42.753 C 51.647999999999996 39.62 54.276999999999994 37.6 57.611 37.6 C 60.946999999999996 37.6 63.474 39.621 63.474 42.856 C 63.474999999999994 45.988 60.946999999999996 48.009 57.611 48.009 z M 61.047999999999995 42.855000000000004 C 61.047999999999995 39.215 58.62199999999999 38.812000000000005 57.611 38.812000000000005 C 55.690999999999995 38.812000000000005 54.172999999999995 40.228 54.172999999999995 42.855000000000004 C 54.172999999999995 45.482000000000006 55.690999999999995 46.898 57.611 46.898 C 58.623 46.898 61.047999999999995 46.393 61.047999999999995 42.855000000000004 z M 41.744 30.827 C 41.441 31.433000000000003 40.732 31.535 39.519 31.535 L 36.992999999999995 31.535 L 36.992999999999995 24.762999999999998 C 36.992999999999995 23.955 37.19499999999999 23.852999999999998 38.205999999999996 23.852999999999998 L 38.913999999999994 23.852999999999998 L 38.913999999999994 22.64 L 32.85 22.64 L 32.85 23.853 L 33.355000000000004 23.853 C 34.265 23.853 34.77 23.853 34.77 24.763 L 34.77 30.727000000000004 C 34.77 31.535000000000004 34.366 31.636000000000003 33.456 31.636000000000003 L 32.95 31.636000000000003 L 32.95 32.748000000000005 L 43.362 32.748000000000005 L 43.362 28.705000000000005 L 42.149 28.705000000000005 C 42.148 29.614000000000004 42.047000000000004 30.221000000000004 41.744 30.827000000000005 z M 28.503 31.535 L 25.269 31.535 L 25.269 28.098 L 25.976999999999997 28.098 C 27.189999999999998 28.098 27.391999999999996 28.3 27.492999999999995 30.018 L 28.604999999999997 30.018 L 28.604999999999997 24.964 L 27.492999999999995 24.964 C 27.391999999999996 26.479999999999997 27.189999999999994 26.884 25.976999999999997 26.884 L 25.269 26.884 L 25.269 23.852 L 27.997999999999998 23.852 C 30.019 23.852 30.625999999999998 24.256 30.726999999999997 26.581 L 31.839 26.581 L 31.839 22.64 L 16.88 22.64 L 16.88 23.853 L 17.587999999999997 23.853 C 18.194 23.853 18.397 23.955000000000002 18.397 24.257 C 18.397 24.46 18.397 24.662000000000003 18.296 25.066000000000003 L 16.375999999999998 30.120000000000005 L 16.275 30.120000000000005 C 15.364999999999998 27.593000000000004 14.151999999999997 24.662000000000006 14.151999999999997 24.662000000000006 C 14.050999999999997 24.460000000000004 14.050999999999997 24.358000000000008 14.050999999999997 24.257000000000005 C 14.050999999999997 23.954000000000004 14.252999999999997 23.853000000000005 14.758999999999997 23.853000000000005 L 15.567999999999996 23.853000000000005 L 15.567999999999996 22.64 L 10.210999999999995 22.64 L 10.210999999999995 23.853 L 10.918999999999995 23.853 C 11.727999999999994 23.853 12.030999999999995 24.257 12.131999999999994 25.066000000000003 L 10.110999999999994 30.120000000000005 L 10.009999999999993 30.120000000000005 C 9.099999999999993 27.391000000000005 7.8869999999999925 24.561000000000003 7.8869999999999925 24.561000000000003 C 7.7859999999999925 24.460000000000004 7.8869999999999925 24.359 7.8869999999999925 24.258000000000003 C 7.7859999999999925 23.955000000000002 8.088999999999993 23.854000000000003 8.695999999999993 23.854000000000003 L 9.1 23.854000000000003 L 9.1 22.64 L 4.043 22.64 L 4.043 23.853 L 4.245 23.853 C 4.953 23.853 5.558 24.257 5.862 25.167 L 8.894 32.747 L 10.713000000000001 32.747 L 12.937000000000001 27.188 L 15.262 32.747 L 17.081 32.747 L 19.911 25.064999999999998 C 20.315 24.154999999999998 20.517000000000003 23.851999999999997 21.427 23.851999999999997 L 21.528 23.851999999999997 C 22.438 23.851999999999997 22.942999999999998 23.851999999999997 22.942999999999998 24.761999999999997 L 22.942999999999998 30.726 C 22.942999999999998 31.534 22.438 31.634999999999998 21.528 31.634999999999998 L 20.921999999999997 31.634999999999998 L 20.921999999999997 32.747 L 32.04 32.747 L 32.04 28.704 L 30.826999999999998 28.704 C 30.726999999999997 30.727 30.322 31.535 28.503 31.535 z M 52.963 28.705 C 52.963 29.615 52.861000000000004 30.220999999999997 52.559 30.828 C 52.254999999999995 31.434 51.547999999999995 31.535999999999998 50.334999999999994 31.535999999999998 L 47.90899999999999 31.535999999999998 L 47.90899999999999 24.763999999999996 C 47.90899999999999 23.955999999999996 48.11099999999999 23.853999999999996 49.020999999999994 23.853999999999996 L 49.82999999999999 23.853999999999996 L 49.82999999999999 22.64 L 43.66399999999999 22.64 L 43.66399999999999 23.853 L 44.371999999999986 23.853 C 45.18199999999999 23.853 45.58399999999999 23.853 45.58399999999999 24.763 L 45.58399999999999 30.727000000000004 C 45.58399999999999 31.535000000000004 45.28099999999999 31.636000000000003 44.371999999999986 31.636000000000003 L 44.16899999999998 31.636000000000003 L 44.16899999999998 32.748000000000005 L 54.17599999999998 32.748000000000005 L 54.17599999999998 28.705000000000005 L 52.96299999999998 28.705000000000005 z M 64.484 29.816 C 64.484 32.141 62.666 32.949 60.038 32.949 C 58.421 32.949 56.805 32.039 56.5 31.735999999999997 L 56.096 32.747 L 55.084999999999994 32.747 L 55.084999999999994 28.704 L 56.297999999999995 28.704 C 56.602 30.624000000000002 57.91499999999999 31.433 59.73499999999999 31.534 C 61.35199999999999 31.634999999999998 62.46399999999999 31.230999999999998 62.56499999999999 30.119 C 62.767999999999994 28.805 61.35199999999999 28.906 60.14099999999999 28.704 L 58.42099999999999 28.401 C 55.894999999999996 27.895 54.983999999999995 27.188 54.983999999999995 25.469 C 54.882 23.650000000000002 56.60099999999999 22.437 58.824 22.437 C 59.937 22.437 61.351 22.639000000000003 62.363 23.448 L 62.868 22.639 L 63.777 22.639 L 63.777 26.177 L 62.666000000000004 26.177 C 62.464000000000006 24.256999999999998 60.441 23.65 58.824000000000005 23.65 C 57.611000000000004 23.752 56.904 24.357999999999997 56.904 25.166999999999998 C 56.904 25.974999999999998 57.611000000000004 26.076999999999998 58.521 26.278999999999996 L 60.644 26.581999999999997 C 62.867999999999995 26.985999999999997 64.484 27.391 64.484 29.815999999999995 z" stroke-linecap="round" />
</g>
</g>
</g>
</svg>

<svg xmlns="http://www.w3.org/2000/svg" width="2500" height="2500" viewBox="0 0 70.751 70.751"><path d="M0 0h70.751v70.751H0V0z" fill="#cd1309"/><path d="M16.172 41.744c0-.809-.101-1.516-.404-2.123-.404-.506-1.112-.605-2.224-.605h-2.527v3.031h.809c1.213 0 1.415-.303 1.415-1.818h1.011v5.054h-1.011c0-1.72-.202-2.123-1.415-2.123h-.809v2.629c0 .91.101.91 1.011.91h1.112v1.211H6.974v-1.211h.606c.809 0 1.112-.103 1.112-.91v-5.965c0-.808-.304-.908-1.112-.908h-.606v-1.111h10.31v3.941l-1.112-.002zM39.419 45.08h-.909c0 1.111 0 1.617-.607 1.617-.303 0-.605-.305-.605-.91v-.506c-.102-1.414-.404-2.021-2.123-2.527 1.92-.201 3.032-1.111 3.032-2.525 0-1.719-1.213-2.426-3.74-2.426h-6.974v1.111h.81c.91 0 1.011.102 1.011.908v5.965c0 .707-.404.91-1.011.91h-.708c-.606 0-.91-.203-1.213-.91l-3.234-7.984H20.72l-3.438 7.984c-.303.707-.505.91-1.313.91h-.404v1.211h5.256v-1.211h-1.112c-.505 0-.809 0-.809-.305 0-.103.101-.304.202-.507l.505-1.213h3.841l.505 1.113c.101.201.101.403.101.504 0 .406-.303.406-.809.406h-1.112v1.211h11.421v-1.211h-.91c-.91 0-1.011 0-1.011-.91v-2.629h1.011c1.718 0 2.224.305 2.325 2.021v1.111c.101 1.416 1.011 1.82 2.425 1.82 1.213 0 2.021-.707 2.021-2.629.004-.097.004-.3.004-.399zm-19.406-1.618l1.617-3.842 1.516 3.842h-3.133zm13.746-1.517l-2.123.102v-3.133h2.123c1.415 0 2.123.404 2.123 1.516v.103c-.001 1.008-.708 1.412-2.123 1.412zM48.415 41.035c-.506-1.516-1.517-2.223-3.134-2.223-1.616 0-2.932 1.313-2.932 3.94 0 2.629 1.012 3.943 2.932 4.043 1.314 0 2.527-.707 2.527-1.817v-.607c0-.707-.102-.707-1.111-.707h-.506v-1.111h4.75v1.111h-.403c-.707 0-.81 0-.81.809v3.336h-.91L48.312 47c-.91.707-2.224 1.111-3.437 1.111-1.415 0-2.526-.506-3.437-1.517-1.01-1.012-1.617-2.325-1.617-3.842 0-1.617.506-2.83 1.517-3.84.91-.91 2.224-1.313 3.64-1.313 1.11 0 2.426.303 3.133 1.11l.504-1.11h.811v3.436h-1.011zM57.611 48.009c-3.334 0-5.963-2.021-5.963-5.256 0-3.133 2.629-5.153 5.963-5.153 3.336 0 5.863 2.021 5.863 5.256.001 3.132-2.527 5.153-5.863 5.153zm3.437-5.154c0-3.64-2.426-4.043-3.437-4.043-1.92 0-3.438 1.416-3.438 4.043s1.518 4.043 3.438 4.043c1.012 0 3.437-.505 3.437-4.043zM41.744 30.827c-.303.606-1.012.708-2.225.708h-2.526v-6.772c0-.808.202-.91 1.213-.91h.708V22.64H32.85v1.213h.505c.91 0 1.415 0 1.415.91v5.964c0 .808-.404.909-1.314.909h-.506v1.112h10.412v-4.043h-1.213c-.001.909-.102 1.516-.405 2.122zM28.503 31.535h-3.234v-3.437h.708c1.213 0 1.415.202 1.516 1.92h1.112v-5.054h-1.112c-.101 1.516-.303 1.92-1.516 1.92h-.708v-3.032h2.729c2.021 0 2.628.404 2.729 2.729h1.112V22.64H16.88v1.213h.708c.606 0 .809.102.809.404 0 .203 0 .405-.101.809l-1.92 5.054h-.101c-.91-2.527-2.123-5.458-2.123-5.458-.101-.202-.101-.304-.101-.405 0-.303.202-.404.708-.404h.809V22.64h-5.357v1.213h.708c.809 0 1.112.404 1.213 1.213l-2.021 5.054h-.101c-.91-2.729-2.123-5.559-2.123-5.559-.101-.101 0-.202 0-.303-.101-.303.202-.404.809-.404H9.1V22.64H4.043v1.213h.202c.708 0 1.313.404 1.617 1.314l3.032 7.58h1.819l2.224-5.559 2.325 5.559h1.819l2.83-7.682c.404-.91.606-1.213 1.516-1.213h.101c.91 0 1.415 0 1.415.91v5.964c0 .808-.505.909-1.415.909h-.606v1.112H32.04v-4.043h-1.213c-.1 2.023-.505 2.831-2.324 2.831zM52.963 28.705c0 .91-.102 1.516-.404 2.123-.304.606-1.011.708-2.224.708h-2.426v-6.772c0-.808.202-.91 1.112-.91h.809V22.64h-6.166v1.213h.708c.81 0 1.212 0 1.212.91v5.964c0 .808-.303.909-1.212.909h-.203v1.112h10.007v-4.043h-1.213zM64.484 29.816c0 2.325-1.818 3.133-4.446 3.133-1.617 0-3.233-.91-3.538-1.213l-.404 1.011h-1.011v-4.043h1.213c.304 1.92 1.617 2.729 3.437 2.83 1.617.101 2.729-.303 2.83-1.415.203-1.314-1.213-1.213-2.424-1.415l-1.72-.303c-2.526-.506-3.437-1.213-3.437-2.932-.102-1.819 1.617-3.032 3.84-3.032 1.113 0 2.527.202 3.539 1.011l.505-.809h.909v3.538h-1.111c-.202-1.92-2.225-2.527-3.842-2.527-1.213.102-1.92.708-1.92 1.517 0 .808.707.91 1.617 1.112l2.123.303c2.224.404 3.84.809 3.84 3.234z" fill="#ff0"/></svg>
